kora/apps/scalable/cozy.svg

<svg xmlns="http://www.w3.org/2000/svg" width="48" height="48">
 <rect style="opacity:0.2" width="32" height="40" x="8" y="5" rx="2" ry="2"/>
 <rect style="fill:#f06a05" width="32" height="40" x="8" y="4" rx="2" ry="2"/>
 <path style="opacity:0.7;stroke:#fafafa;stroke-width:0.33924195px;stroke-opacity:0.49710987" d="m 12,11.169621 h 2.072864 z m 2.376884,0 h 1.934674 z m 2.238693,0 h 1.713568 z m 1.989951,0 h 0.746231 z m 1.050251,0 h 1.658291 z m 1.98995,0 h 4.366834 z m 4.643215,0 h 3.344222 z m 3.620604,0 h 1.022613 z M 12,13.244177 h 3.233668 z m 3.592965,0 h 1.547738 z m 1.82412,0 h 0.77387 z m 1.07789,0 h 1.409548 z m 1.713567,0 h 1.437187 z m 1.713569,0 h 2.29397 z m 2.597989,0 h 2.984925 z m 3.261307,0 h 1.98995 z m 2.266332,0 h 0.497488 z M 12,15.304428 h 2.736181 z m 3.012563,0 h 4.477387 z m 4.753769,0 h 2.183417 z m 2.459798,0 h 2.045227 z m 2.321608,0 h 1.741206 z m 2.017588,0 2.736182,0.02861 z m 2.984925,0.02861 H 34 Z M 12,17.39329 h 3.786432 z m 4.090453,0 h 4.090451 z m 4.366833,0 h 1.630655 z m 1.907036,0 h 3.841708 z m 4.090452,0 h 2.625628 z m 2.929648,0 h 1.050251 z m 1.326633,0 h 0.580402 z m 0.884423,0 h 1.630653 z M 12,19.467847 h 1.409548 z m 1.851759,0 h 5.223618 z M 12,22.925441 h 2.072864 z m 2.376884,0 h 1.907036 z m 2.238693,0 h 1.713568 z m 1.989951,0 h 0.746231 z m 1.050251,0 h 1.658291 z m 1.98995,0 h 4.339196 z m 4.643215,0 h 3.316584 z m 3.592966,0 h 1.050251 z m 1.326632,0 H 33.69598 Z M 12,24.999998 h 3.482412 z m 3.758794,0 h 3.731156 z m 4.007538,0 h 1.437186 z m 1.713568,0 h 3.51005 z m 3.786431,0 h 4.422111 z m 4.726131,0 h 1.630654 z M 12,27.074555 h 3.786432 z m 4.090453,0 h 4.090451 z m 4.366833,0 h 1.630655 z m 1.907036,0 h 3.841708 z m 4.090452,0 h 2.625628 z m 2.929648,0 h 1.050251 z m 1.326633,0 h 0.580402 z m 0.884423,0 h 1.630653 z M 12,29.149112 h 3.233668 z m 3.592965,0 h 1.547738 z m 1.82412,0 h 0.77387 z m 1.07789,0 h 1.409548 z m 1.713567,0 h 1.437187 z m 1.713569,0 h 2.29397 z m 2.597989,0 h 2.984925 z m 3.261307,0 h 1.98995 z m 2.266332,0 h 0.497488 z M 12,32.592404 h 2.736181 z m 3.012563,0 h 4.477387 z m 4.753769,0 h 2.183417 z m 2.459798,0 h 2.045227 z m 2.321608,0 h 1.741206 z m 2.017588,0 2.736182,0.02861 z m 2.984925,0.02861 H 34 Z M 12,34.681266 h 3.233668 z m 3.592965,0 h 1.547738 z m 1.82412,0 h 0.77387 z m 1.07789,0 h 1.409548 z m 1.713567,0 h 1.437187 z m 1.713569,0 h 2.29397 z m 2.597989,0 h 2.984925 z m 3.261307,0 h 1.98995 z m 2.266332,0 h 0.497488 z M 12,36.755823 h 3.427136 z m 3.731155,0 h 1.07789 z m 1.354272,0 h 2.459799 z m 2.736181,0 h 3.620603 z m 3.924624,0 h 2.459798 z m 2.708542,0 h 0.525125 z m 0.801508,0 h 3.123115 z m 3.454773,0 h 1.630654 z M 12,38.830379 h 3.427136 z m 3.731155,0 h 1.54774 z m 1.824121,0 h 2.432161 z m 2.708543,0 h 2.625628 z m 2.929648,0 h 1.050252 z m 1.326633,0 h 0.580403 z m 0.884423,0 h 1.630653 z"/>
 <path style="opacity:0.2" d="m 24,13 c -0.106246,0 -0.211449,-0.0012 -0.318359,0.002 C 17.843141,13.17517 13.001649,17.981763 13,23.853516 V 26.115234 29 H 12.673828 C 12.30077,29 12,29.290996 12,29.666016 v 5.679687 C 12,35.720722 12.301144,35.983293 12.673828,36 H 13.197266 13.529297 14 v 1.322266 C 14,37.697292 14.30663,38 14.679688,38 h 2.673828 C 17.726573,38 18,37.697285 18,37.322266 V 28.689453 C 18,28.314434 17.726559,27.996742 17.353516,28 h -1.34375 v -0.978516 -0.90625 h -0.01953 V 23.853516 C 16.210992,19.358467 20,16 24,16 c 4,0 7.789008,3.358467 8.009766,7.853516 v 2.261718 h -0.01953 V 27.021484 28 h -1.34375 C 30.273441,27.996742 30,28.314434 30,28.689453 v 8.632813 C 30,37.697285 30.273427,38 30.646484,38 h 2.673828 C 33.69337,38 34,37.697292 34,37.322266 V 36 h 0.470703 0.332031 0.523438 C 35.698856,35.983293 36,35.720722 36,35.345703 V 29.666016 C 36,29.290996 35.69923,29 35.326172,29 H 35 V 26.115234 23.853516 C 34.998351,17.981763 30.156859,13.17517 24.318359,13.001953 24.211449,12.998753 24.106246,13 24,13 Z"/>
 <path style="fill:#ffffff" d="M 24 12 C 23.893754 12 23.788551 11.998753 23.681641 12.001953 C 17.843141 12.17517 13.001649 16.981763 13 22.853516 L 13 25.115234 L 13 28 L 12.673828 28 C 12.30077 28 12 28.290996 12 28.666016 L 12 34.345703 C 12 34.720722 12.301144 34.983293 12.673828 35 L 13.197266 35 L 13.529297 35 L 14 35 L 14 36.322266 C 14 36.697292 14.30663 37 14.679688 37 L 17.353516 37 C 17.726573 37 18 36.697285 18 36.322266 L 18 27.689453 C 18 27.314434 17.726559 26.996742 17.353516 27 L 16.009766 27 L 16.009766 26.021484 L 16.009766 25.115234 L 15.990234 25.115234 L 15.990234 22.853516 C 16.210992 18.358467 20 15 24 15 C 28 15 31.789008 18.358467 32.009766 22.853516 L 32.009766 25.115234 L 31.990234 25.115234 L 31.990234 26.021484 L 31.990234 27 L 30.646484 27 C 30.273441 26.996742 30 27.314434 30 27.689453 L 30 36.322266 C 30 36.697285 30.273427 37 30.646484 37 L 33.320312 37 C 33.69337 37 34 36.697292 34 36.322266 L 34 35 L 34.470703 35 L 34.802734 35 L 35.326172 35 C 35.698856 34.983293 36 34.720722 36 34.345703 L 36 28.666016 C 36 28.290996 35.69923 28 35.326172 28 L 35 28 L 35 25.115234 L 35 22.853516 C 34.998351 16.981763 30.156859 12.17517 24.318359 12.001953 C 24.211449 11.998753 24.106246 12 24 12 z"/>
 <path style="opacity:0.2;fill:#ffffff" d="M 10 4 C 8.892 4 8 4.892 8 6 L 8 7 C 8 5.892 8.892 5 10 5 L 38 5 C 39.108 5 40 5.892 40 7 L 40 6 C 40 4.892 39.108 4 38 4 L 10 4 z"/>
</svg>

<svg clip-rule="evenodd" fill-rule="evenodd" viewBox="0 0 48 48" xmlns="http://www.w3.org/2000/svg" xmlns:xlink="http://www.w3.org/1999/xlink">
 <linearGradient id="a" x2="1" gradientTransform="matrix(.432593 -44.666 44.666 .432593 24 46.333)" gradientUnits="userSpaceOnUse">
  <stop stop-color="#f04905" offset="0"/>
  <stop stop-color="#f06a05" offset="1"/>
 </linearGradient>
 <path d="m36.575 1.667c2.782 0 5.038 2.257 5.038 5.04l1e-3 34.586c0 2.783-2.256 5.04-5.039 5.04h-25.149c-2.783 0-5.039-2.257-5.039-5.04v-34.586c0-2.783 2.256-5.04 5.039-5.04z" fill="url(#a)" fill-rule="nonzero"/>
 <image transform="matrix(.974947 0 0 .96865 11.300611 10.470138)" width="23.399" height="29.059" xlink:href="data:image/png;base64,iVBORw0KGgoAAAANSUhEUgAAABgAAAAeCAYAAAA2Lt7lAAAACXBIWXMAAA7EAAAOxAGVKw4bAAABwUlEQVRIic2W3U7DMAyFv0AxHUNcAe//bEiIKyQYf1sYCRexO9e0gIQ2caSq6bGdOnVO3JRzXgDXwJaGDngDFnpHx6/AGWOYH0DW2DsR2XIopJxzD1w67gVYAmugalaJtsJefXzma+Ur8CQiq/iCBBw5ruqEccyMz4gXkeKJTq+lPm/12cO4ChTg2HHe9g50OWcf+2rGqkRxYwJXnG/kkr74OMQm+0R+uXPL/wkWN9xFpHbAKXDlHH0BIxdtG403H8MCeARGBd8LkhPaCrgI9ioiN3vP4l/DK3nqLFor1zNdfFMxtLPohFb4nvZ5b72Sbf+PttoE5zGl+oETkY+OJo6lC4pqjqqd8xuOCBF5srE/g/aCnw67yEVb/ETDvEDxSvbHtS9c5KLNK3nt+J6mq8Mq2fBCa42WkTWcd3bb9G1iXGgN52HfSR8WpmQ7rn3RCFyl7f0Tx8UiS4i9TwC6Vf+COT2VlHPugHNHZs1kq1kf0Yr8odlDK7iNfV/eiIjfroPUYx+ujHv13DOMe/UX/FbJ8eVzdt+Pi61gSsmwU2xUr9fARic1u/1ePgOH0cOUkuMfRKEVUmiFtgu13373s/sJCHTI+mmFntIAAAAASUVORK5CYII="/>
 <path d="m24 12c-.106 0-.211-.001-.318.002-5.839.173-10.68 4.98-10.682 10.852v5.146h-.326c-.373 0-.674.291-.674.666v5.68c0 .375.301.637.674.654h1.326v1.322c0 .375.307.678.68.678h2.674c.373 0 .646-.303.646-.678v-8.633c0-.375-.273-.692-.646-.689h-1.344v-1.885h-.02v-2.261c.221-4.496 4.01-7.854 8.01-7.854s7.789 3.358 8.01 7.854v2.261h-.02v1.885h-1.344c-.373-.003-.646.314-.646.689v8.633c0 .375.273.678.646.678h2.674c.373 0 .68-.303.68-.678v-1.322h1.326c.373-.017.674-.279.674-.654v-5.68c0-.375-.301-.666-.674-.666h-.326v-5.146c-.002-5.872-4.843-10.679-10.682-10.852-.107-.003-.212-.002-.318-.002z" fill="#ffffff" fill-rule="nonzero"/>
</svg>
